X: 2
T: Nasz Zbawiciel
C: Anonim
%%abc-version 2.0
%%abcx-abcm2ps-target-version 5.9.1 (29 Sep 2008)
%%abc-creator hum2abc beta
%%abcx-conversion-date 2021/10/04 07:56:47
%%abc-edited-by Marcin Konik
%%abc-edited-by Marcin Konik
%%abcx-initial-encoding-date 2015-04
%%humdrum-veritas 3451598565
%%humdrum-veritas-data 1334982887
%%linebreak <none>
%%barnumbers 0
L: 1/4
M: 2/1
N: Derived from pl-stab--st-a--002_anonim--nasz-zbawiciel.krn
K: F clef=G3
d4c3B [|] 
A2G2F4 [|] 
A2>B2c2d3 [|] 
ef2d4 [|] 
c8 [|] 
d2>e2f2d2 [|] 
e4A4 [|] 
G4G2A3 [|] 
GF2E4 [|] 
A8 [|] 
E2D2C4 [|] 
D8 [|] 
F2>G2ABc2 [|] 
B4A4 [|] 
c2>B2c2A4 [|] 
d2c4 [|] 
!fermata!d8 |]  


